icon/gr/desktop.svg

<svg xmlns="http://www.w3.org/2000/svg" width="24" height="24"><path fill="none" stroke="#000" stroke-width="2" d="M1 1h22v18H1V1Zm4 22h14H5Zm5-4v4-4Zm4 0v4-4Z"/></svg>

<svg xmlns="http://www.w3.org/2000/svg" viewBox="0 0 24 24" height="1em" width="1em">
  <path fill="none" stroke="#000" stroke-width="2" d="M1,1 L23,1 L23,19 L1,19 L1,1 Z M5,23 L19,23 L5,23 Z M10,19 L10,23 L10,19 Z M14,19 L14,23 L14,19 Z"/>
</svg>
